X: 48
T: Chicago Glide
M:4/4
L:1/8
S:Viola "Mom" Ruth - Pioneer Western Folk Tunes (1948)
Z:AK/Fiddler's Companion
K:D
|:A>FA>f e>de>f|1 a2a2a2z2:|2
M:3/4
L:1/8
A3z2 (f/g/)||(a2^g2a2)|(b2a2f2)|(g2f2g2)|A2 z2 (ef)|
(g2f2g2)|(c'2b2a2)|(f2e2f2)|A4 (FG)|A3 (FAd)|(f2e2d2)|
B3 (_B=Bd)|(g2f2e2)|A>Bc>de>f|(g2f2g2)|(b2a2f2)|A3 (FAd)|
(f2e2e2)|B3 (_B=Bd)|(g2f2e2)|A>Bc>de>f|(g2f2g2)|(b2a2f2)|(g2B2c2)|d4 z2||

%%sep 1 1 500
